src/icons/error-handling.svg

<svg fill="none" height="17" viewBox="0 0 26 17" width="26" xmlns="http://www.w3.org/2000/svg"><path d="m16.6382 4.41317-5.8253 9.72493c-.1201.208-.1836.4438-.1843.6839-.0007.2402.0616.4764.1805.6851.1189.2086.2904.3825.4974.5043s.4423.1873.6825.1899h11.6506c.2402-.0026.4755-.0681.6825-.1899s.3785-.2957.4974-.5043c.1189-.2087.1812-.4449.1805-.6851-.0007-.2401-.0642-.4759-.1843-.6839l-5.8253-9.72493c-.1226-.20213-.2953-.36924-.5013-.48522s-.4384-.17691-.6748-.17691-.4688.06093-.6748.17691-.3787.28309-.5013.48522z"/><path d="m17.8143 7.94824v2.75106"/><path d="m1 1h9.6286"/><path d="m1 3.75104h4.12654"/><path d="m7.18982 9.25308h2.75103"/><path d="m1 9.25308h4.12654"/><path d="m1 6.50204h7.56533"/><path d="m7.18982 3.75104h6.18978"/><path d="m17.8143 13.4503h.0069"/></svg>

<svg width="26" height="17" viewBox="0 0 26 17" fill="none" xmlns="http://www.w3.org/2000/svg">
<path d="M16.6382 4.41317L10.8129 14.1381C10.6928 14.3461 10.6293 14.5819 10.6286 14.822C10.6279 15.0622 10.6902 15.2984 10.8091 15.5071C10.928 15.7157 11.0995 15.8896 11.3065 16.0114C11.5135 16.1332 11.7488 16.1987 11.989 16.2013H23.6396C23.8798 16.1987 24.1151 16.1332 24.3221 16.0114C24.5291 15.8896 24.7006 15.7157 24.8195 15.5071C24.9384 15.2984 25.0007 15.0622 25 14.822C24.9993 14.5819 24.9358 14.3461 24.8157 14.1381L18.9904 4.41317C18.8678 4.21104 18.6951 4.04393 18.4891 3.92795C18.2831 3.81197 18.0507 3.75104 17.8143 3.75104C17.5779 3.75104 17.3455 3.81197 17.1395 3.92795C16.9335 4.04393 16.7608 4.21104 16.6382 4.41317V4.41317Z"/>
<path d="M17.8143 7.94824V10.6993"/>
<path d="M1 1H10.6286"/>
<path d="M1 3.75104H5.12654"/>
<path d="M7.18982 9.25308H9.94085"/>
<path d="M1 9.25308H5.12654"/>
<path d="M1 6.50204H8.56533"/>
<path d="M7.18982 3.75104H13.3796"/>
<path d="M17.8143 13.4503H17.8212"/>
</svg>
